X: 1
T: Wonder, The
C: James Hill
Z: ceili
S: https://thesession.org/tunes/337#setting54519
R: hornpipe
M: 4/4
L: 1/8
K: Gmaj
|:(3DEF|"G"GdBG "D7"FcAF|"G" (3GFG BG D2GF|"C"EGAB cBAG|"D7" Fd^cd ed (3=cBA|
"G"GdBG "D7"FcAF|"G" (3GGG BG D2GF|"C"Eedc "D7"BAGF|"G"AGGF G2:|
|:AG|"D"FAd^c dBAG|FAd^c dfed|"A7" ^cdef gece|"D"d^cde d2=c2|
"B7"BcBA "E7"^GBe2|"A7"ABAG "D7"FAd2|"C" egfe "D7" dcBA|"G"(3GGG BA G2:|

